common/src/main/resources/files/plugins/datagrip/hsqldbFileType.svg

<!--
  - The MIT License (MIT)
  -
  - Copyright (c) 2015-2024 Elior "Mallowigi" Boukhobza
  -
  - Permission is hereby granted, free of charge, to any person obtaining a copy
  - of this software and associated documentation files (the "Software"), to deal
  - in the Software without restriction, including without limitation the rights
  - to use, copy, modify, merge, publish, distribute, sublicense, and/or sell
  - copies of the Software, and to permit persons to whom the Software is
  - furnished to do so, subject to the following conditions:
  -
  - The above copyright notice and this permission notice shall be included in all
  - copies or substantial portions of the Software.
  -
  - THE SOFTWARE IS PROVIDED "AS IS", WITHOUT WARRANTY OF ANY KIND, EXPRESS OR
  - IMPLIED, INCLUDING BUT NOT LIMITED TO THE WARRANTIES OF MERCHANTABILITY,
  - FITNESS FOR A PARTICULAR PURPOSE AND NONINFRINGEMENT. IN NO EVENT SHALL THE
  - AUTHORS OR COPYRIGHT HOLDERS BE LIABLE FOR ANY CLAIM, DAMAGES OR OTHER
  - LIABILITY, WHETHER IN AN ACTION OF CONTRACT, TORT OR OTHERWISE, ARISING FROM,
  - OUT OF OR IN CONNECTION WITH THE SOFTWARE OR THE USE OR OTHER DEALINGS IN THE
  - SOFTWARE.
  -->
<svg data-big="true" width="16px" height="16px" viewBox="0 0 16 16" fill="none" xmlns="http://www.w3.org/2000/svg">
  <path fill-rule="evenodd" clip-rule="evenodd"
        d="M11.4106 11.3544C11.4106 11.3544 11.4106 11.3544 11.4106 11.3544L12.6428 12.5865L12.6462 12.5831C15.367 9.85872 15.4511 5.52969 12.8331 2.91169C10.2153 0.293924 5.8868 0.377723 3.16237 3.09789C0.791979 5.46828 0.717453 9.23692 2.9964 11.5159C4.84607 13.3655 7.67733 13.6651 9.94569 12.445C10.4705 12.1627 10.9652 11.799 11.4106 11.3544ZM11.5471 4.13398C13.5028 6.08966 13.4391 9.32406 11.405 11.3582L10.3592 10.3134C11.7519 8.92025 11.7962 6.70529 10.4569 5.36603C9.11928 4.02839 6.90787 4.07079 5.51438 5.45851L5.50934 5.46354C4.45707 6.5178 4.42476 8.19252 5.43762 9.20538C6.45048 10.2182 8.12585 10.1866 9.18011 9.13431L10.3592 10.3134C8.62489 12.0413 5.8724 12.0935 4.20732 10.4284C2.54026 8.76132 2.59458 6.00433 4.32854 4.27038C6.36303 2.2418 9.59322 2.18012 11.5471 4.13398ZM9.14096 6.95903C9.7261 7.54416 9.73472 8.49438 9.18011 9.13431C9.1805 9.13392 9.18067 9.13331 9.18088 9.13275L9.18145 9.13174L6.96777 6.91806C7.60769 6.36529 8.55646 6.37453 9.14096 6.95903Z"
        fill="#9CC4E8"/>
  <path fill-rule="evenodd" clip-rule="evenodd"
        d="M11.405 11.3582C13.4391 9.32406 13.5028 6.08966 11.5471 4.13398C9.59322 2.18012 6.36303 2.2418 4.32854 4.27038C2.59458 6.00433 2.54026 8.76132 4.20732 10.4284C5.8724 12.0935 8.62489 12.0413 10.3592 10.3134L11.405 11.3582ZM9.18011 9.13431C9.73472 8.49438 9.7261 7.54416 9.14096 6.95903C8.55646 6.37453 7.60769 6.36529 6.96777 6.91806L9.18145 9.13174C9.1808 9.13239 9.18076 9.13366 9.18011 9.13431C8.12585 10.1866 6.45048 10.2182 5.43762 9.20538C4.42476 8.19252 4.45707 6.5178 5.50934 5.46354L5.51438 5.45851C6.90787 4.07079 9.11928 4.02839 10.4569 5.36603C11.7962 6.70529 11.7519 8.92025 10.3592 10.3134L9.18011 9.13431Z"
        fill="#509CD1"/>
  <path
    d="M12.6462 12.5831L12.6428 12.5865L11.4106 11.3544C10.9652 11.799 10.4705 12.1627 9.94568 12.445L12.5009 15.0002L13.7821 13.719L12.6462 12.5831Z"
    fill="#509CD1"/>
</svg>

<svg xmlns="http://www.w3.org/2000/svg" width="16" height="16" fill="none" data-big="true"><path fill="#9CC4E8" fill-rule="evenodd" d="m11.41 11.354 1.233 1.233.003-.004c2.721-2.724 2.805-7.053.187-9.671s-6.946-2.534-9.67.186C.791 5.468.716 9.237 2.995 11.516c1.85 1.85 4.681 2.15 6.95.929a6.3 6.3 0 0 0 1.465-1.09m.137-7.22c1.956 1.956 1.892 5.19-.142 7.224l-1.046-1.045c1.393-1.393 1.437-3.608.098-4.947s-3.55-1.295-4.943.093l-.005.005c-1.052 1.054-1.084 2.729-.071 3.741 1.012 1.013 2.688.982 3.742-.07l1.18 1.178c-1.735 1.728-4.488 1.78-6.153.115C2.54 8.761 2.595 6.004 4.33 4.27c2.034-2.028 5.264-2.09 7.218-.136M9.141 6.959c.585.585.594 1.535.04 2.175v-.002L6.968 6.918c.64-.553 1.588-.543 2.173.041" clip-rule="evenodd"/><path fill="#509CD1" fill-rule="evenodd" d="M11.405 11.358c2.034-2.034 2.098-5.268.142-7.224C9.593 2.18 6.363 2.242 4.33 4.27c-1.734 1.734-1.789 4.491-.122 6.158 1.665 1.665 4.418 1.613 6.152-.115zM9.18 9.134c.555-.64.546-1.59-.039-2.175s-1.533-.594-2.173-.04L9.18 9.131zc-1.055 1.053-2.73 1.084-3.743.071-1.013-1.012-.98-2.687.071-3.741l.005-.005c1.394-1.388 3.605-1.43 4.943-.093 1.34 1.34 1.295 3.554-.098 4.947z" clip-rule="evenodd"/><path fill="#509CD1" d="m12.646 12.583-.003.003-1.232-1.232c-.446.445-.94.809-1.465 1.091L12.5 15l1.281-1.281z"/></svg>
